X: 263
M: 6/8
L: 1/8
Q: "Slow"
K: Dm
V: 1
f |\
cA>TA cG>TG | cA>TA d>ef | cA>TA  cG>TG | Te3  d>ef | cA>A cG>G |
c<Ac d>ef | c<AA c<GG | e3 d2 :: c | c>de f2d | (e//f//g3/)f {f}e2d |
c>de f>gf | e3 d2c | c>de f>gf | e>dc d>ef | c<AA c<GG | e3 d2 :|
V: 2 clef=bass middle=d
z |\
f3 e2c' | a2f b3 | a2f e2b | (a>fe/d/) d2z | f2f e2c |
a2^c d>ef/g/ | a2A d2e | [af3]>bg [a2f2][=bd] | [c'2c2]a b2B |  A2f e2c | G2A d2 :|


